X:682
T: SANKT MICHEL DER HAT SICH GEBAUET
N: E2087
O: Europa, Mitteleuropa, Deutschland, Niederrhein
R: geistlich, Heiligen - Lied, Legende
M: 6/8
L: 1/16
K: G
D2 | G2G2A2_B2A2B2 | G6F4
D2 | G4A2_B2A2G2 | A6z4
GA | _B2A2B2c2B2c2 | d6c4
_B2 | A2_B2G2F2G2A2 | G6z4

@@@ Tune index: 5366
